packages/vibrant-icons/assets/icons/ToteBagPlay/Fill.svg

<svg fill="none" height="24" viewBox="0 0 24 24" width="24" xmlns="http://www.w3.org/2000/svg"><path clip-rule="evenodd" d="m2.62547 21.391c.02133.2594.23806.459.49832.459h17.75231c.2603 0 .477-.1996.4983-.459l1.1963-14.54998c.024-.29132-.206-.54097-.4983-.54097h-5.4727v-1.02501c0-2.4675-2.0075-4.474991-4.475-4.474991h-.25c-2.46748 0-4.47498 2.007491-4.47498 4.474991v1.02501h-5.47268c-.29231 0-.52228.24966-.49832.54098zm11.77423-16.11596v1.02501h-4.79998v-1.02501c0-1.25449 1.02048-2.275 2.27498-2.275h.25c1.2545 0 2.275 1.02051 2.275 2.275zm1.6002 8.97496-6.49996-3.5.2 7z" fill="#0c0c0c" fill-rule="evenodd"/></svg>

<svg xmlns="http://www.w3.org/2000/svg" width="24" height="24" fill="none"><path fill="#0c0c0c" fill-rule="evenodd" d="M2.625 21.391a.5.5 0 0 0 .499.459h17.752a.5.5 0 0 0 .498-.459l1.197-14.55a.5.5 0 0 0-.499-.541H16.6V5.275A4.48 4.48 0 0 0 12.125.8h-.25A4.48 4.48 0 0 0 7.4 5.275V6.3H1.927a.5.5 0 0 0-.498.541zM14.4 5.275V6.3H9.6V5.275A2.277 2.277 0 0 1 11.875 3h.25A2.28 2.28 0 0 1 14.4 5.275M16 14.25l-6.5-3.5.2 7z" clip-rule="evenodd"/></svg>
